src/images/logoV2.svg

<svg viewBox="0 0 110 75" fill="none" xmlns="http://www.w3.org/2000/svg">
<g clip-path="url(#clip0_134_276)">
<path d="M26.9266 45.5154L22.1175 63.754L16.7355 63.7389L13.8572 51.7188L10.8076 63.7223L5.42559 63.7072L0.848723 45.4424L5.6067 45.4557L8.19549 58.749L11.4827 45.4721L16.3707 45.4858L19.4534 58.7805L22.1426 45.502L26.9266 45.5154ZM31.386 47.7639C30.606 47.7617 29.9653 47.5346 29.4639 47.0825C28.9799 46.6131 28.7389 46.0405 28.7408 45.3645C28.7427 44.6711 28.987 44.0998 29.4736 43.6505C29.9775 43.1839 30.6195 42.9517 31.3995 42.9539C32.1622 42.956 32.7855 43.1918 33.2695 43.6611C33.7709 44.1132 34.0207 44.6859 34.0187 45.3792C34.0168 46.0552 33.7639 46.6265 33.2599 47.0931C32.7733 47.5424 32.1487 47.766 31.386 47.7639ZM33.5918 49.2781L33.5512 63.786L29.1052 63.7736L29.1458 49.2656L33.5918 49.2781ZM45.6542 49.1558C47.3528 49.1606 48.7033 49.7191 49.7055 50.8312C50.7251 51.9261 51.2322 53.4355 51.2268 55.3595L51.2031 63.8354L46.7831 63.8231L46.8052 55.9451C46.8079 54.9744 46.5587 54.2197 46.0575 53.681C45.5563 53.1423 44.8811 52.8717 44.0318 52.8693C43.1824 52.8669 42.5057 53.1337 42.0015 53.6696C41.4973 54.2056 41.2439 54.9589 41.2412 55.9295L41.2191 63.8075L36.7731 63.795L36.8138 49.2871L41.2598 49.2995L41.2544 51.2235C41.7068 50.5835 42.3149 50.0825 43.0786 49.7206C43.8423 49.3414 44.7008 49.1532 45.6542 49.1558ZM63.1736 49.2049C64.8723 49.2097 66.2227 49.7681 67.225 50.8803C68.2446 51.9751 68.7517 53.4845 68.7463 55.4085L68.7225 63.8845L64.3026 63.8721L64.3246 55.9942C64.3273 55.0235 64.0781 54.2688 63.577 53.7301C63.0758 53.1913 62.4006 52.9208 61.5512 52.9184C60.7019 52.916 60.0251 53.1828 59.521 53.7187C59.0168 54.2546 58.7634 55.0079 58.7606 55.9786L58.7386 63.8565L54.2926 63.8441L54.3332 49.3361L58.7792 49.3486L58.7738 51.2726C59.2263 50.6325 59.8344 50.1316 60.598 49.7697C61.3618 49.3905 62.2203 49.2022 63.1736 49.2049ZM74.0929 47.8835C73.3129 47.8813 72.6722 47.6542 72.1708 47.2021C71.6868 46.7327 71.4457 46.1601 71.4476 45.4841C71.4496 44.7907 71.6938 44.2194 72.1804 43.7701C72.6844 43.3035 73.3264 43.0713 74.1064 43.0735C74.869 43.0756 75.4924 43.3114 75.9764 43.7807C76.4778 44.2328 76.7275 44.8055 76.7256 45.4988C76.7237 46.1748 76.4708 46.7461 75.9668 47.2127C75.4802 47.662 74.8556 47.8856 74.0929 47.8835ZM76.2987 49.3977L76.258 63.9056L71.8121 63.8932L71.8527 49.3852L76.2987 49.3977ZM78.6163 56.6582C78.6205 55.1502 78.9276 53.8337 79.5374 52.7087C80.1645 51.5838 81.025 50.7196 82.1187 50.116C83.2297 49.5124 84.4959 49.2126 85.9172 49.2166C87.7372 49.2217 89.2525 49.7026 90.4632 50.6593C91.6912 51.6161 92.4934 52.9617 92.8699 54.6961L88.1379 54.6828C87.7423 53.5724 86.9726 53.0156 85.8286 53.0124C85.0139 53.0101 84.363 53.3289 83.8759 53.9689C83.3888 54.5915 83.1436 55.4922 83.1403 56.6708C83.137 57.8495 83.3771 58.7602 83.8607 59.4029C84.3442 60.0282 84.9934 60.3421 85.808 60.3443C86.952 60.3475 87.7249 59.795 88.1267 58.6868L92.8587 58.7001C92.4726 60.3977 91.6628 61.7301 90.4295 62.6973C89.1961 63.6645 87.6781 64.1456 85.8754 64.1405C84.4541 64.1366 83.1896 63.8297 82.082 63.2199C80.9917 62.6102 80.1361 61.7411 79.5152 60.6127C78.9117 59.4844 78.6121 58.1662 78.6163 56.6582ZM104.088 63.9835L99.6851 57.8872L99.6681 63.9712L95.2221 63.9587L95.276 44.7188L99.722 44.7312L99.6922 55.3652L104.103 49.4755L109.589 49.4909L103.536 56.754L109.6 63.999L104.088 63.9835Z" fill="url(#paint0_linear_134_276)"/>
<path d="M38.9211 27.646L33.6431 21.9L38.9211 16.154H44.5111L39.2071 21.9L44.5111 27.646H38.9211ZM63.5092 6.3L56.5412 35.862H52.2512L59.2192 6.3H63.5092ZM65.4105 16.154H71.0005L76.2785 21.9L71.0005 27.646H65.4105L70.7145 21.9L65.4105 16.154Z" fill="url(#paint1_linear_134_276)"/>
</g>
<defs>
<linearGradient id="paint0_linear_134_276" x1="-5.33699" y1="54.4196" x2="109.95" y2="54.7424" gradientUnits="userSpaceOnUse">
<stop stop-color="#7D7D7D"/>
<stop offset="1" stop-color="#C0BFBF"/>
</linearGradient>
<linearGradient id="paint1_linear_134_276" x1="29.7972" y1="22.0001" x2="78" y2="22.0001" gradientUnits="userSpaceOnUse">
<stop stop-color="#7D7D7D"/>
<stop offset="1" stop-color="#C0BFBF"/>
</linearGradient>
<clipPath id="clip0_134_276">
<rect width="110" height="75" fill="white"/>
</clipPath>
</defs>
</svg>

<svg viewBox="0 0 110 75" fill="none" xmlns="http://www.w3.org/2000/svg"><g clip-path="url(#a)"><path d="m26.927 45.515-4.81 18.239-5.382-.015-2.878-12.02-3.05 12.003-5.381-.015L.849 45.442l4.758.014 2.588 13.293 3.288-13.277 4.888.014 3.082 13.295 2.69-13.279 4.784.013zm4.459 2.249c-.78-.002-1.42-.23-1.922-.681a2.292 2.292 0 0 1-.723-1.718c.002-.694.246-1.265.733-1.715.503-.466 1.145-.698 1.925-.696.763.002 1.386.238 1.87.707.502.452.752 1.025.75 1.718a2.255 2.255 0 0 1-.76 1.714c-.486.45-1.11.673-1.873.67zm2.206 1.514-.04 14.508-4.447-.012.04-14.508 4.447.012zm12.062-.122c1.699.005 3.05.563 4.051 1.675 1.02 1.095 1.527 2.604 1.522 4.528l-.024 8.476-4.42-.012.022-7.878c.003-.97-.246-1.725-.748-2.264-.5-.539-1.176-.81-2.025-.812-.85-.002-1.526.265-2.03.8-.505.537-.758 1.29-.76 2.26l-.023 7.878-4.446-.012.04-14.508 4.447.013-.006 1.924c.453-.64 1.06-1.141 1.825-1.503.763-.38 1.622-.568 2.575-.565zm17.52.049c1.698.005 3.049.563 4.051 1.675 1.02 1.095 1.527 2.604 1.521 4.528l-.023 8.477-4.42-.013.022-7.878c.002-.97-.247-1.725-.748-2.264-.501-.539-1.176-.81-2.026-.812-.85-.002-1.526.265-2.03.8-.504.537-.758 1.29-.76 2.26l-.022 7.878-4.446-.012.04-14.508 4.446.013-.005 1.924c.452-.64 1.06-1.141 1.824-1.503.764-.38 1.622-.568 2.576-.565zm10.919-1.322c-.78-.002-1.42-.229-1.922-.68a2.293 2.293 0 0 1-.723-1.719c.002-.693.246-1.265.732-1.714.504-.467 1.146-.699 1.926-.697.763.003 1.386.238 1.87.708.502.452.752 1.025.75 1.718a2.255 2.255 0 0 1-.76 1.714c-.486.449-1.11.673-1.873.67zm2.206 1.515-.041 14.508-4.446-.013.04-14.508 4.447.013zm2.317 7.26c.005-1.508.312-2.824.921-3.95.627-1.124 1.488-1.988 2.582-2.592 1.11-.604 2.377-.903 3.798-.9 1.82.006 3.335.487 4.546 1.443 1.228.957 2.03 2.303 2.407 4.037l-4.732-.013c-.396-1.11-1.165-1.667-2.31-1.67-.814-.003-1.465.316-1.952.956-.487.623-.732 1.523-.736 2.702-.003 1.178.237 2.09.72 2.732.484.625 1.133.94 1.948.941 1.144.003 1.917-.549 2.319-1.657l4.732.013c-.386 1.698-1.196 3.03-2.43 3.997-1.233.967-2.75 1.449-4.554 1.444-1.42-.004-2.685-.311-3.793-.921-1.09-.61-1.946-1.479-2.567-2.607-.603-1.129-.903-2.447-.899-3.955zm25.472 7.325-4.403-6.096-.017 6.084-4.446-.012.054-19.24 4.446.012-.03 10.634 4.411-5.89 5.486.016-6.053 7.263 6.064 7.245-5.512-.016z" fill="url(#b)"/><path d="M38.921 27.646 33.643 21.9l5.278-5.746h5.59L39.207 21.9l5.304 5.746h-5.59zM63.51 6.3l-6.968 29.562h-4.29L59.22 6.3h4.29zm1.901 9.854H71l5.278 5.746L71 27.646h-5.59l5.305-5.746-5.305-5.746z" fill="url(#c)"/></g><defs><linearGradient id="b" x1="-5.337" y1="54.42" x2="109.95" y2="54.742" gradientUnits="userSpaceOnUse"><stop stop-color="#7D7D7D"/><stop offset="1" stop-color="#C0BFBF"/></linearGradient><linearGradient id="c" x1="29.797" y1="22" x2="78" y2="22" gradientUnits="userSpaceOnUse"><stop stop-color="#7D7D7D"/><stop offset="1" stop-color="#C0BFBF"/></linearGradient><clipPath id="a"><path fill="#fff" d="M0 0h110v75H0z"/></clipPath></defs></svg>
